brandFactory_export/3.Masa/Archivador_3Masa.svg

<?xml version="1.0" encoding="UTF-8"?>
<svg width="24px" height="24px" viewBox="0 0 24 24" version="1.1" xmlns="http://www.w3.org/2000/svg" xmlns:xlink="http://www.w3.org/1999/xlink">
    <title>3.Masa/Archivador_3Masa</title>
    <g id="Symbols" stroke="none" stroke-width="1" fill="none" fill-rule="evenodd">
        <g id="3.Masa/Archivador_3Masa" fill="#5CB615" fill-rule="nonzero">
            <path d="M14.4739496,11.5831933 C14.0571429,11.5831933 13.7210084,11.9226891 13.7210084,12.3394958 L13.7210084,13.3815126 C13.7176471,14.3697479 12.9176471,15.1697479 11.9260504,15.1697479 L11.6941176,15.1697479 C10.7058824,15.1697479 9.90588235,14.3697479 9.90252101,13.3815126 L9.90252101,12.3394958 C9.90252101,11.9226891 9.56638655,11.5865546 9.14957983,11.5831933 L1.78823529,11.5831933 L3.42184874,1.87226891 C3.42857143,1.83193277 3.43193277,1.78823529 3.43193277,1.74789916 C3.43193277,1.62016807 3.53613445,1.51596639 3.66386555,1.51596639 L19.9596639,1.53277311 C20.1176471,1.53277311 20.2722689,1.70756303 20.3092437,1.92605042 L21.8420168,11.5865546 L14.4739496,11.5865546 L14.4739496,11.5831933 Z M23.610084,13.1932773 C23.610084,13.1697479 23.6134454,13.1529412 23.6134454,13.1294118 L21.794958,1.66722689 C21.6168067,0.695798319 20.8638655,0.0168067227 19.9596639,0.0168067227 L3.66722689,0 C2.73277311,0 1.96638655,0.742857143 1.92605042,1.67394958 L0.0168067227,13.0453782 C0.0100840336,13.0756303 0.0201680672,13.1058824 0.0201680672,13.1361345 C0.0134453782,13.1966387 0.00336134454,13.2571429 0.00336134454,13.3176471 L0.00336134454,21.8756303 C0.00336134454,22.8403361 0.786554622,23.6235294 1.74453782,23.6235294 L21.8823529,23.6235294 C22.8436975,23.6235294 23.6235294,22.8403361 23.6235294,21.8756303 L23.6235294,13.3210084 C23.6235294,13.2806723 23.6134454,13.2336134 23.610084,13.1932773 Z" id="Archivador_3Masa"></path>
        </g>
    </g>
</svg>

<svg width="24" height="24" viewBox="0 0 24 24" xmlns="http://www.w3.org/2000/svg"><path d="M14.474 11.583a.755.755 0 00-.753.756v1.043a1.793 1.793 0 01-1.795 1.788h-.232c-.988 0-1.788-.8-1.791-1.788v-1.043a.757.757 0 00-.753-.756H1.788l1.634-9.71a.776.776 0 00.01-.125c0-.128.104-.232.232-.232l16.296.017c.158 0 .312.175.35.393l1.532 9.66h-7.368v-.003zm9.136 1.61c0-.023.003-.04.003-.064L21.795 1.667c-.178-.971-.931-1.65-1.835-1.65L3.667 0c-.934 0-1.7.743-1.74 1.674L.016 13.045c-.007.03.003.06.003.091-.007.06-.017.121-.017.182v8.558c0 .964.784 1.748 1.742 1.748h20.137c.962 0 1.742-.784 1.742-1.748V13.32c0-.04-.01-.087-.014-.128z" fill="#5CB615" fill-rule="nonzero"/></svg>
